images/hot.svg

<svg height="250" viewBox="0 0 250 250" width="250" xmlns="http://www.w3.org/2000/svg"><path d="m6.535156.351562c-3.785156.414063-6.699218 1.238282-6.535156 1.855469 1.511719 4.980469 10.847656 34.304688 10.972656 34.480469.128906.175781 2.296875.382812 4.851563.53125 11.3125.589844 20.265625 3.652344 29.945312 10.285156 6.953125 4.742188 12.101563 9.839844 17.460938 17.238282 7.890625 10.902343 13.035156 23.015624 16.054687 37.835937.34375 1.710937.617188 3.242187.617188 3.480469 0 .324218-1.722656.382812-9.335938.382812-5.144531 0-9.570312.117188-9.847656.265625-.402344.203125-1.464844 3.386719-5.890625 17.445313-2.976563 9.457031-5.445313 17.414062-5.488281 17.679687-.148438.765625 1.640625 1.445313 6.105468 2.359375.914063.207032 6.402344.410156 12.886719.53125l11.296875.175782-.683594 3.242187c-7.613281 35.773437-31.242187 60.792969-60.1875 63.800781-1.636718.144532-3.785156.292969-4.785156.292969h-1.808594l-5.570312 17.769531c-4.785156 15.175782-5.53125 17.769532-5.210938 17.917969 1.445313.738281 4.679688 1 12.164063 1 9.570313 0 14.230469-.585937 22.121094-2.828125 32.21875-9.164062 58.996093-37.574219 71.117187-75.527344 2.339844-7.308594 5.085938-19.332031 5.574219-24.371094l.148437-1.445312h24.179688l.085938.648438c1.746093 11.847656 3.636718 19.832031 6.914062 29.261718 9.84375 28.410156 28.304688 51.601563 51.167969 64.332032 13.882812 7.703124 28.757812 11.40625 43.707031 10.875 6.253906-.265626 11.230469-1.238282 10.972656-2.152344-.210937-.765625-10.804687-34.449219-10.867187-34.539063-.0625-.085937-2.253907-.203125-4.914063-.351562-7.464844-.414063-13.078125-1.621094-19.414062-4.125-9.765625-3.890625-19.417969-10.933594-26.820313-19.539063-9.316406-10.875-16.058593-24.402344-19.628906-39.398437-.40625-1.710938-.808594-3.507813-.875-4.039063l-.148437-.941406 9.101562-.089844c5-.058594 9.253906-.207031 9.421875-.324218.277344-.207032 11.167969-34.421876 11.167969-35.097657 0-.441406-2.746094-1.5625-5.234375-2.121093-1.828125-.414063-4.144531-.53125-13.398438-.621094l-11.207031-.144532.425781-2.09375c6.210938-30.472656 25.265625-54.664062 49.832031-63.242187 5.421876-1.882813 10.695313-2.855469 17.542969-3.238281 4.085938-.238282 4.59375-.324219 4.851563-.796875.167968-.324219 2.679687-8.132813 5.570312-17.359375 3.554688-11.285156 5.191406-16.855469 5.042969-17.003906-.46875-.351563-3.445313-1.089844-5.785156-1.414063-3.402344-.5-13.335938-.410156-17.71875.121094-25.050781 3.09375-47.636719 17.089843-64.566407 39.957031-10.335937 13.96875-17.589843 29.648438-22.054687 47.742188-1.148437 4.566406-2.53125 11.757812-2.957031 15.234374l-.257813 2.152344h-23.769531l-.085938-.679687c-.0625-.351563-.296874-2.03125-.550781-3.742188-3.511719-24.164062-13.421875-47.652343-27.414062-64.949219-15.929688-19.714843-35.796875-32.0625-57.660157-35.8125-6.570312-1.113281-15.042968-1.496093-20.628906-.90625zm0 0" fill="#007f88"/></svg>

<svg xmlns="http://www.w3.org/2000/svg" xmlns:xlink="http://www.w3.org/1999/xlink" width="250px" height="250px" viewBox="0 0 250 250" version="1.1">
<g id="surface1">
<path style=" stroke:none;fill-rule:nonzero;fill:rgb(0%,49.803922%,53.333336%);fill-opacity:1;" d="M 6.535156 0.351562 C 2.75 0.765625 -0.164062 1.589844 0 2.207031 C 1.511719 7.1875 10.847656 36.511719 10.972656 36.6875 C 11.101562 36.863281 13.269531 37.070312 15.824219 37.21875 C 27.136719 37.808594 36.089844 40.871094 45.769531 47.503906 C 52.722656 52.246094 57.871094 57.34375 63.230469 64.742188 C 71.121094 75.644531 76.265625 87.757812 79.285156 102.578125 C 79.628906 104.289062 79.902344 105.820312 79.902344 106.058594 C 79.902344 106.382812 78.179688 106.441406 70.566406 106.441406 C 65.421875 106.441406 60.996094 106.558594 60.71875 106.707031 C 60.316406 106.910156 59.253906 110.09375 54.828125 124.152344 C 51.851562 133.609375 49.382812 141.566406 49.339844 141.832031 C 49.191406 142.597656 50.980469 143.277344 55.445312 144.191406 C 56.359375 144.398438 61.847656 144.601562 68.332031 144.722656 L 79.628906 144.898438 L 78.945312 148.140625 C 71.332031 183.914062 47.703125 208.933594 18.757812 211.941406 C 17.121094 212.085938 14.972656 212.234375 13.972656 212.234375 L 12.164062 212.234375 L 6.59375 230.003906 C 1.808594 245.179688 1.0625 247.773438 1.382812 247.921875 C 2.828125 248.660156 6.0625 248.921875 13.546875 248.921875 C 23.117188 248.921875 27.777344 248.335938 35.667969 246.09375 C 67.886719 236.929688 94.664062 208.519531 106.785156 170.566406 C 109.125 163.257812 111.871094 151.234375 112.359375 146.195312 L 112.507812 144.75 L 136.6875 144.75 L 136.773438 145.398438 C 138.519531 157.246094 140.410156 165.230469 143.6875 174.660156 C 153.53125 203.070312 171.992188 226.261719 194.855469 238.992188 C 208.738281 246.695312 223.613281 250.398438 238.5625 249.867188 C 244.816406 249.601562 249.792969 248.628906 249.535156 247.714844 C 249.324219 246.949219 238.730469 213.265625 238.667969 213.175781 C 238.605469 213.089844 236.414062 212.972656 233.753906 212.824219 C 226.289062 212.410156 220.675781 211.203125 214.339844 208.699219 C 204.574219 204.808594 194.921875 197.765625 187.519531 189.160156 C 178.203125 178.285156 171.460938 164.757812 167.890625 149.761719 C 167.484375 148.050781 167.082031 146.253906 167.015625 145.722656 L 166.867188 144.78125 L 175.96875 144.691406 C 180.96875 144.632812 185.222656 144.484375 185.390625 144.367188 C 185.667969 144.160156 196.558594 109.945312 196.558594 109.269531 C 196.558594 108.828125 193.8125 107.707031 191.324219 107.148438 C 189.496094 106.734375 187.179688 106.617188 177.925781 106.527344 L 166.71875 106.382812 L 167.144531 104.289062 C 173.355469 73.816406 192.410156 49.625 216.976562 41.046875 C 222.398438 39.164062 227.671875 38.191406 234.519531 37.808594 C 238.605469 37.570312 239.113281 37.484375 239.371094 37.011719 C 239.539062 36.6875 242.050781 28.878906 244.941406 19.652344 C 248.496094 8.367188 250.132812 2.796875 249.984375 2.648438 C 249.515625 2.296875 246.539062 1.558594 244.199219 1.234375 C 240.796875 0.734375 230.863281 0.824219 226.480469 1.355469 C 201.429688 4.449219 178.84375 18.445312 161.914062 41.3125 C 151.578125 55.28125 144.324219 70.960938 139.859375 89.054688 C 138.710938 93.621094 137.328125 100.8125 136.902344 104.289062 L 136.644531 106.441406 L 112.875 106.441406 L 112.789062 105.761719 C 112.726562 105.410156 112.492188 103.730469 112.238281 102.019531 C 108.726562 77.855469 98.816406 54.367188 84.824219 37.070312 C 68.894531 17.355469 49.027344 5.007812 27.164062 1.257812 C 20.59375 0.144531 12.121094 -0.238281 6.535156 0.351562 Z M 6.535156 0.351562 "/>
</g>
</svg>
